findly-builder/apps/searchassist/src/assets/icons/accordion-show.svg

<svg width="12" height="6" viewBox="0 0 12 6" fill="none" xmlns="http://www.w3.org/2000/svg">
<path fill-rule="evenodd" clip-rule="evenodd" d="M6 5.98926C6.17773 5.98926 6.33154 5.92432 6.46143 5.79443L11.0552 1.20068C11.1851 1.0708 11.25 0.916992 11.25 0.739258C11.25 0.561523 11.1851 0.407715 11.0552 0.277832C10.9253 0.147949 10.7715 0.0830078 10.5938 0.0830078L1.40625 0.0830078C1.22852 0.0830078 1.07471 0.147949 0.944824 0.277832C0.814941 0.407715 0.75 0.561523 0.75 0.739258C0.75 0.916992 0.814941 1.0708 0.944824 1.20068L5.53857 5.79443C5.66846 5.92432 5.82227 5.98926 6 5.98926Z" fill="#202124"/>
</svg>

<svg width="12" height="6" fill="none" xmlns="http://www.w3.org/2000/svg"><path fill-rule="evenodd" clip-rule="evenodd" d="M6 5.99a.63.63 0 0 0 .461-.196l4.594-4.593a.63.63 0 0 0 .195-.462.63.63 0 0 0-.195-.461.63.63 0 0 0-.461-.195H1.406a.63.63 0 0 0-.461.195.63.63 0 0 0-.195.461.63.63 0 0 0 .195.462l4.594 4.593A.63.63 0 0 0 6 5.99Z" fill="#202124"/></svg>
